!!!COM: Music21
!!!OTL: march_Leaving-Of-Liverpool--The
!!!OMV: march_Leaving-Of-Liverpool--The
**kern
*clefG2
*k[f#c#]
*D:
*M4/4
=1
8dL
8eJ
=
4.f#
8a
2ryy
=
8gL
8f#J
8eL
8dJ
2ryy
=
4.dd
8b
2ryy
=
4a
8dL
8eJ
2ryy
=
4f#
4a
2ryy
=
4b
4a
2ryy
=
2e
2ryy
=
4e
8dL
8eJ
2ryy
!!linebreak:original
=
4.f#
8a
2ryy
=
8gL
8f#J
8dL
8eJ
2ryy
=
4.dd
8b
2ryy
=
4a
8dL
8eJ
2ryy
=
4f#
8aL
8f#J
2ryy
=
4e
4e
2ryy
=
2d
2ryy
=||
4d
8cc#L
8ddJ
2ryy
=
4.ee
8cc#
2ryy
!!linebreak:original
=
4a
8cc#L
8eeJ
2ryy
=
4.dd
8b
2ryy
=
4.a
8d
2ryy
=
4.f#
8a
2ryy
=
8bL
8aJ
8gL
8f#J
2ryy
=
2e
2ryy
=
4a
8aL
8gJ
2ryy
=
4f#
8f#L
8aJ
2ryy
=
8gL
8f#J
8eL
8dJ
2ryy
!!linebreak:original
=
4.dd
8b
2ryy
=
8a
4d
8e
2ryy
=
8f#L
8aJ
8aL
8f#J
2ryy
=
4e
4e
2ryy
=
2d
2ryy
=||
4d
8cc#L
8ddJ
2ryy
=
4.ee
8cc#
2ryy
=
4a
8cc#L
8eeJ
2ryy
=
4.dd
8b
2ryy
!!linebreak:original
=
4.a
8d
2ryy
=
4.f#
8a
2ryy
=
8bL
8aJ
8gL
8f#J
2ryy
=
2e
2ryy
=
4a
8aL
8gJ
2ryy
=
4f#
8f#L
8aJ
2ryy
=
8gL
8f#J
8eL
8dJ
2ryy
=
4.dd
8b
2ryy
!!linebreak:original
=
8a
4d
8e
2ryy
=
8f#L
8aJ
8aL
8f#J
2ryy
=
4e
4e
2ryy
=
2d
2ryy
=||
*-
